icons/people.svg

<svg width="48" height="48" viewBox="0 0 48 48" fill="none" xmlns="http://www.w3.org/2000/svg">
<path fill-rule="evenodd" clip-rule="evenodd" d="M17 24C20.8675 24 24 20.8675 24 17C24 13.1325 20.8675 10 17 10C13.1325 10 10 13.1325 10 17C10 20.8675 13.1325 24 17 24ZM22 17C22 19.7629 19.7629 22 17 22C14.2371 22 12 19.7629 12 17C12 14.2371 14.2371 12 17 12C19.7629 12 22 14.2371 22 17Z" fill="black"/>
<path fill-rule="evenodd" clip-rule="evenodd" d="M4 38V32.4C4 28.144 12.6612 26 17 26C19.8862 26 24.6851 26.9487 27.5749 28.8368C29.6346 28.2798 31.8936 28 33.5 28C35.3579 28 37.851 28.3742 39.9092 29.1307C40.9364 29.5084 41.9189 30.004 42.6622 30.6463C43.4108 31.2931 44 32.1676 44 33.2667V38H4ZM6 32.4C6 32.0826 6.14556 31.6486 6.76618 31.0846C7.39908 30.5095 8.37322 29.9511 9.60682 29.4645C12.076 28.4906 15.0766 28 17 28C18.9234 28 21.924 28.4906 24.3932 29.4645C25.6268 29.9511 26.6009 30.5095 27.2338 31.0846C27.8544 31.6486 28 32.0826 28 32.4V36H6V32.4ZM29.3532 30.4692C30.8657 30.1565 32.3834 30 33.5 30C35.1465 30 37.4034 30.3405 39.2191 31.0079C40.1288 31.3423 40.8643 31.736 41.3546 32.1597C41.8398 32.5789 42 32.947 42 33.2667V36H30V32.4C30 31.6991 29.7651 31.0554 29.3532 30.4692Z" fill="black"/>
<path fill-rule="evenodd" clip-rule="evenodd" d="M39 20.5C39 23.5387 36.5387 26 33.5 26C30.4613 26 28 23.5387 28 20.5C28 17.4612 30.4613 15 33.5 15C36.5387 15 39 17.4612 39 20.5ZM33.5 24C35.4342 24 37 22.4342 37 20.5C37 18.5658 35.4342 17 33.5 17C31.5658 17 30 18.5658 30 20.5C30 22.4342 31.5658 24 33.5 24Z" fill="black"/>
</svg>

<svg
  xmlns="http://www.w3.org/2000/svg"
  width="24"
  height="24"
  viewBox="0 0 24 24"
  fill="none"
  stroke="currentColor"
  stroke-width="2"
  stroke-linecap="round"
  stroke-linejoin="round"
>
  <path
    fill-rule="evenodd"
    d="M17 24c3.867 0 7-3.133 7-7s-3.133-7-7-7-7 3.133-7 7 3.133 7 7 7m5-7c0 2.763-2.237 5-5 5s-5-2.237-5-5 2.237-5 5-5 5 2.237 5 5"
    clip-rule="evenodd"
  />
  <path
    fill-rule="evenodd"
    d="M4 38v-5.6c0-4.256 8.661-6.4 13-6.4 2.886 0 7.685.949 10.575 2.837C29.635 28.28 31.894 28 33.5 28c1.858 0 4.351.374 6.41 1.13 1.026.378 2.009.874 2.752 1.516.749.647 1.338 1.522 1.338 2.62V38zm2-5.6c0-.317.146-.751.766-1.315.633-.576 1.607-1.134 2.84-1.62C12.077 28.49 15.077 28 17 28c1.923 0 4.924.49 7.393 1.465 1.234.486 2.208 1.044 2.84 1.62.621.564.767.998.767 1.315V36H6zm23.353-1.93c1.513-.313 3.03-.47 4.147-.47 1.647 0 3.903.34 5.72 1.008.909.334 1.644.728 2.135 1.152.485.419.645.787.645 1.107V36H30v-3.6c0-.7-.235-1.345-.647-1.93"
    clip-rule="evenodd"
  />
  <path
    fill-rule="evenodd"
    d="M39 20.5c0 3.039-2.461 5.5-5.5 5.5a5.5 5.5 0 0 1-5.5-5.5c0-3.039 2.461-5.5 5.5-5.5s5.5 2.461 5.5 5.5M33.5 24c1.934 0 3.5-1.566 3.5-3.5S35.434 17 33.5 17a3.5 3.5 0 0 0-3.5 3.5c0 1.934 1.566 3.5 3.5 3.5"
    clip-rule="evenodd"
  />
</svg>
